assets/img/typography-card.svg

<svg width="285" height="170" viewBox="0 0 285 170" fill="none" xmlns="http://www.w3.org/2000/svg">
<path d="M0 8C0 3.58172 3.58172 0 8 0H277C281.418 0 285 3.58172 285 8V170H0V8Z" fill="#F6F6F6"/>
<path d="M49.6555 123.885H45.8828V128H49.6555V123.885Z" fill="#457AA5"/>
<path d="M146.768 123.885H142.996V128H146.768V123.885Z" fill="#457AA5"/>
<path d="M234.883 123.885H231.11V128H234.883V123.885Z" fill="#457AA5"/>
<path d="M233.581 126.584H47.1831V45.7696H233.581V126.584ZM48.3566 125.304H232.408V47.0498H48.3566V125.304Z" fill="#457AA5"/>
<path d="M49.6557 44.3511H45.8829V48.4667H49.6557V44.3511Z" fill="#457AA5"/>
<path d="M146.768 44.3513H142.996V48.4669H146.768V44.3513Z" fill="#457AA5"/>
<path d="M234.883 44.3513H231.11V48.4669H234.883V44.3513Z" fill="#457AA5"/>
<path d="M49.6555 84.1188H45.8828V88.2344H49.6555V84.1188Z" fill="#457AA5"/>
<path d="M234.883 84.1188H231.11V88.2344H234.883V84.1188Z" fill="#457AA5"/>
<path d="M109.238 108H103.348L99.69 98.824H79.106L75.448 108H69.558L86.174 66.646H92.56L109.238 108ZM98.14 94.236L89.398 71.978L80.594 94.236H98.14ZM136.593 108H131.943V104.59C129.463 107.318 126.053 108.744 122.023 108.744C116.939 108.744 111.545 105.334 111.545 98.824C111.545 92.128 116.939 88.966 122.023 88.966C126.115 88.966 129.525 90.268 131.943 93.058V87.664C131.943 83.634 128.719 81.34 124.379 81.34C120.783 81.34 117.869 82.642 115.203 85.494L113.033 82.27C116.257 78.922 120.101 77.31 124.999 77.31C131.323 77.31 136.593 80.162 136.593 87.416V108ZM123.697 105.396C126.983 105.396 130.145 104.156 131.943 101.676V96.034C130.145 93.554 126.983 92.314 123.697 92.314C119.357 92.314 116.319 95.042 116.319 98.886C116.319 102.668 119.357 105.396 123.697 105.396ZM163.088 108H144.24V66.646H162.654C169.846 66.646 174.248 70.986 174.248 77.186C174.248 82.394 170.776 85.866 166.994 86.672C171.396 87.354 175.054 91.88 175.054 96.84C175.054 103.474 170.652 108 163.088 108ZM161.786 84.564C166.436 84.564 168.916 81.712 168.916 77.93C168.916 74.21 166.436 71.234 161.786 71.234H149.386V84.564H161.786ZM162.034 103.412C166.87 103.412 169.722 100.684 169.722 96.282C169.722 92.5 167.118 89.152 162.034 89.152H149.386V103.412H162.034ZM185.216 99.878C186.828 102.482 190.486 104.59 194.144 104.59C200.22 104.59 203.816 99.692 203.816 93.058C203.816 86.424 200.22 81.464 194.144 81.464C190.486 81.464 186.828 83.696 185.216 86.3V99.878ZM185.216 108H180.566V66.646H185.216V82.58C187.634 79.294 191.23 77.31 195.322 77.31C203.134 77.31 208.652 83.51 208.652 93.058C208.652 102.792 203.134 108.744 195.322 108.744C191.106 108.744 187.448 106.574 185.216 103.536V108Z" fill="black"/>
</svg>

<svg xmlns="http://www.w3.org/2000/svg" width="285" height="170" fill="none" viewBox="0 0 285 170"><path fill="#f6f6f6" d="M0 8a8 8 0 0 1 8-8h269a8 8 0 0 1 8 8v162H0z"/><path fill="#457aa5" d="M49.656 123.885h-3.773V128h3.773zM146.768 123.885h-3.772V128h3.772zM234.883 123.885h-3.773V128h3.773z"/><path fill="#457aa5" d="M233.581 126.584H47.183V45.77h186.398zm-185.224-1.28h184.051V47.05H48.357z"/><path fill="#457aa5" d="M49.656 44.351h-3.773v4.116h3.773zM146.768 44.351h-3.772v4.116h3.772zM234.883 44.351h-3.773v4.116h3.773zM49.656 84.119h-3.773v4.115h3.773zM234.883 84.119h-3.773v4.115h3.773z"/><path fill="#000" d="M109.238 108h-5.89l-3.658-9.176H79.106L75.448 108h-5.89l16.616-41.354h6.386zM98.14 94.236l-8.742-22.258-8.804 22.258zM136.593 108h-4.65v-3.41c-2.48 2.728-5.89 4.154-9.92 4.154-5.084 0-10.478-3.41-10.478-9.92 0-6.696 5.394-9.858 10.478-9.858 4.092 0 7.502 1.302 9.92 4.092v-5.394c0-4.03-3.224-6.324-7.564-6.324-3.596 0-6.51 1.302-9.176 4.154l-2.17-3.224c3.224-3.348 7.068-4.96 11.966-4.96 6.324 0 11.594 2.852 11.594 10.106zm-12.896-2.604c3.286 0 6.448-1.24 8.246-3.72v-5.642c-1.798-2.48-4.96-3.72-8.246-3.72-4.34 0-7.378 2.728-7.378 6.572 0 3.782 3.038 6.51 7.378 6.51M163.088 108H144.24V66.646h18.414c7.192 0 11.594 4.34 11.594 10.54 0 5.208-3.472 8.68-7.254 9.486 4.402.682 8.06 5.208 8.06 10.168 0 6.634-4.402 11.16-11.966 11.16m-1.302-23.436c4.65 0 7.13-2.852 7.13-6.634 0-3.72-2.48-6.696-7.13-6.696h-12.4v13.33zm.248 18.848c4.836 0 7.688-2.728 7.688-7.13 0-3.782-2.604-7.13-7.688-7.13h-12.648v14.26zm23.182-3.534c1.612 2.604 5.27 4.712 8.928 4.712 6.076 0 9.672-4.898 9.672-11.532s-3.596-11.594-9.672-11.594c-3.658 0-7.316 2.232-8.928 4.836zm0 8.122h-4.65V66.646h4.65V82.58c2.418-3.286 6.014-5.27 10.106-5.27 7.812 0 13.33 6.2 13.33 15.748 0 9.734-5.518 15.686-13.33 15.686-4.216 0-7.874-2.17-10.106-5.208z"/></svg>
